frontend/public/logo-vertical.svg

<svg width="45" height="41" viewBox="0 0 45 41" fill="none" xmlns="http://www.w3.org/2000/svg">
<path d="M36 18C36 19.6569 37.3431 21 39 21C40.6569 21 42 19.6569 42 18C42 16.3431 40.6569 15 39 15C37.3431 15 36 16.3431 36 18Z" fill="#BEDBFF"/>
<path d="M0 17H31.2258V19H0V17ZM0 39H32.6172V41H0V39ZM41.7188 39H44.5023V41H41.7188V39Z" fill="#BEDBFF"/>
<path d="M36.0844 40.9844C35.4789 40.9844 34.9906 40.9648 34.6195 40.9258V38.6797C35.1143 38.7057 35.5049 38.7188 35.7914 38.7188C36.0192 38.7188 36.208 38.6992 36.3578 38.6602C36.514 38.6211 36.6605 38.5299 36.7972 38.3867C36.9405 38.2435 37.0674 38.0286 37.1781 37.7422L37.3539 37.293L33.5453 26.3945H36.5726L38.7992 34.207H38.9164L41.1625 26.3945H44.2289L40.0883 38.1719C39.7692 39.0768 39.2907 39.7702 38.6527 40.252C38.0147 40.7402 37.1586 40.9844 36.0844 40.9844Z" fill="#262C33"/>
<path d="M32.239 37H29.3484V22.8594H32.239V37Z" fill="#262C33"/>
<path d="M24.3118 26.3945H27.2024V37H24.3118V26.3945ZM25.7571 25.0078C25.4706 25.0078 25.2037 24.9427 24.9563 24.8125C24.7154 24.6758 24.5234 24.4967 24.3801 24.2754C24.2434 24.0475 24.175 23.8034 24.175 23.543C24.175 23.276 24.2434 23.0286 24.3801 22.8008C24.5234 22.5729 24.7154 22.3939 24.9563 22.2637C25.2037 22.127 25.4706 22.0586 25.7571 22.0586C26.037 22.0586 26.2974 22.127 26.5383 22.2637C26.7792 22.3939 26.968 22.5729 27.1047 22.8008C27.248 23.0286 27.3196 23.276 27.3196 23.543C27.3196 23.8034 27.248 24.0475 27.1047 24.2754C26.968 24.4967 26.7792 24.6758 26.5383 24.8125C26.2974 24.9427 26.037 25.0078 25.7571 25.0078Z" fill="#262C33"/>
<path d="M12.7516 34.0312C12.7516 32.9375 13.1194 32.1367 13.8551 31.6289C14.5908 31.1211 15.538 30.8346 16.6969 30.7695C17.413 30.724 18.292 30.6784 19.3336 30.6328V29.7734C19.3206 29.3307 19.1676 28.9857 18.8746 28.7383C18.5817 28.4909 18.1683 28.3672 17.6344 28.3672C17.1526 28.3672 16.7587 28.4714 16.4528 28.6797C16.1468 28.888 15.9547 29.1745 15.8766 29.5391H13.1227C13.1813 28.9141 13.3961 28.3542 13.7672 27.8594C14.1448 27.3646 14.6689 26.974 15.3395 26.6875C16.0101 26.401 16.8011 26.2578 17.7125 26.2578C18.5198 26.2578 19.262 26.3848 19.9391 26.6387C20.6227 26.8926 21.1696 27.2897 21.5797 27.8301C21.9964 28.3639 22.2047 29.0378 22.2047 29.8516V37H19.4703V35.5352H19.3922C19.1123 36.0495 18.7119 36.4564 18.191 36.7559C17.6767 37.0488 17.042 37.1953 16.2867 37.1953C15.5966 37.1953 14.9847 37.0781 14.4508 36.8438C13.9235 36.6029 13.5068 36.2448 13.2008 35.7695C12.9013 35.2943 12.7516 34.7148 12.7516 34.0312ZM15.525 33.9531C15.525 34.3503 15.6683 34.6595 15.9547 34.8809C16.2477 35.0957 16.6318 35.2031 17.1071 35.2031C17.5367 35.2031 17.9209 35.1152 18.2594 34.9395C18.6045 34.7637 18.8714 34.5228 19.0602 34.2168C19.249 33.9108 19.3401 33.5755 19.3336 33.2109V32.4395C19.0276 32.446 18.65 32.4622 18.2008 32.4883C17.7516 32.5143 17.4065 32.5404 17.1656 32.5664C16.6578 32.6185 16.2574 32.7617 15.9645 32.9961C15.6715 33.2305 15.525 33.5495 15.525 33.9531Z" fill="#262C33"/>
<path d="M5.03906 37.1758C4.21875 37.1758 3.48307 36.9642 2.83203 36.541C2.18099 36.1113 1.66667 35.4863 1.28906 34.666C0.911458 33.8392 0.722656 32.8529 0.722656 31.707C0.722656 30.5352 0.914714 29.5423 1.29883 28.7285C1.68294 27.9082 2.20052 27.293 2.85156 26.8828C3.50911 26.4661 4.23828 26.2578 5.03906 26.2578C5.83984 26.2578 6.48112 26.4434 6.96289 26.8145C7.44466 27.1855 7.80599 27.638 8.04688 28.1719H8.14453V22.8594H11.0352V37H8.18359V35.3008H8.04688C7.79948 35.8281 7.43164 36.2741 6.94336 36.6387C6.45508 36.9967 5.82031 37.1758 5.03906 37.1758ZM5.9375 34.8711C6.41276 34.8711 6.81966 34.7409 7.1582 34.4805C7.49674 34.2135 7.75391 33.8424 7.92969 33.3672C8.11198 32.8854 8.20312 32.3255 8.20312 31.6875C8.20312 30.724 8.00456 29.9622 7.60742 29.4023C7.21029 28.8424 6.65365 28.5625 5.9375 28.5625C5.22135 28.5625 4.66797 28.8457 4.27734 29.4121C3.88672 29.9785 3.69141 30.737 3.69141 31.6875C3.69141 32.651 3.88672 33.4225 4.27734 34.002C4.66797 34.5814 5.22135 34.8711 5.9375 34.8711Z" fill="#262C33"/>
<path d="M30.5422 6.5625H28.55V11.7383C28.55 12.1289 28.6347 12.4023 28.804 12.5586C28.9732 12.7148 29.2206 12.7995 29.5461 12.8125C29.9628 12.8125 30.3469 12.793 30.6985 12.7539V15.0391C30.3534 15.1042 29.8391 15.1367 29.1555 15.1367C28.0683 15.1367 27.2122 14.8861 26.5872 14.3848C25.9622 13.8835 25.6529 13.138 25.6594 12.1484V6.5625H24.1946V4.39453H25.6594V1.85547H28.55V4.39453H30.5422V6.5625Z" fill="#262C33"/>
<path d="M18.025 15.2148C16.9703 15.2148 16.0524 14.987 15.2711 14.5312C14.4899 14.0755 13.8877 13.4342 13.4645 12.6074C13.0413 11.7741 12.8297 10.8138 12.8297 9.72656C12.8297 8.63932 13.038 7.68229 13.4547 6.85547C13.8779 6.02865 14.4801 5.39062 15.2614 4.94141C16.0491 4.48568 16.9703 4.25781 18.025 4.25781C19.0797 4.25781 20.0009 4.48568 20.7887 4.94141C21.5765 5.39062 22.1819 6.02865 22.6051 6.85547C23.0283 7.68229 23.2399 8.63932 23.2399 9.72656C23.2399 10.8138 23.0283 11.7741 22.6051 12.6074C22.1819 13.4342 21.5765 14.0755 20.7887 14.5312C20.0009 14.987 19.0797 15.2148 18.025 15.2148ZM18.0446 12.9688C18.5263 12.9688 18.9365 12.832 19.275 12.5586C19.6136 12.2786 19.8675 11.8945 20.0367 11.4062C20.206 10.918 20.2906 10.3581 20.2906 9.72656C20.2906 9.09505 20.206 8.53516 20.0367 8.04688C19.8675 7.55208 19.6136 7.16471 19.275 6.88477C18.9365 6.60482 18.5263 6.46484 18.0446 6.46484C17.5563 6.46484 17.1396 6.60482 16.7946 6.88477C16.456 7.16471 16.1989 7.55208 16.0231 8.04688C15.8473 8.53516 15.7594 9.09505 15.7594 9.72656C15.7594 10.3516 15.8473 10.9115 16.0231 11.4062C16.1989 11.8945 16.456 12.2786 16.7946 12.5586C17.1396 12.832 17.5563 12.9688 18.0446 12.9688Z" fill="#262C33"/>
<path d="M5.03906 15.1758C4.21875 15.1758 3.48307 14.9642 2.83203 14.541C2.18099 14.1113 1.66667 13.4863 1.28906 12.666C0.911458 11.8392 0.722656 10.8529 0.722656 9.70703C0.722656 8.53516 0.914714 7.54232 1.29883 6.72852C1.68294 5.9082 2.20052 5.29297 2.85156 4.88281C3.50911 4.46615 4.23828 4.25781 5.03906 4.25781C5.83984 4.25781 6.48112 4.44336 6.96289 4.81445C7.44466 5.18555 7.80599 5.63802 8.04688 6.17188H8.14453V0.859375H11.0352V15H8.18359V13.3008H8.04688C7.79948 13.8281 7.43164 14.2741 6.94336 14.6387C6.45508 14.9967 5.82031 15.1758 5.03906 15.1758ZM5.9375 12.8711C6.41276 12.8711 6.81966 12.7409 7.1582 12.4805C7.49674 12.2135 7.75391 11.8424 7.92969 11.3672C8.11198 10.8854 8.20312 10.3255 8.20312 9.6875C8.20312 8.72396 8.00456 7.96224 7.60742 7.40234C7.21029 6.84245 6.65365 6.5625 5.9375 6.5625C5.22135 6.5625 4.66797 6.8457 4.27734 7.41211C3.88672 7.97852 3.69141 8.73698 3.69141 9.6875C3.69141 10.651 3.88672 11.4225 4.27734 12.002C4.66797 12.5814 5.22135 12.8711 5.9375 12.8711Z" fill="#262C33"/>
</svg>

<svg fill="none" viewBox="0 0 45 41"><path fill="#bedbff" d="M36 18a3 3 0 1 0 6 0 3 3 0 0 0-6 0M0 17h31.226v2H0zm0 22h32.617v2H0zm41.719 0h2.783v2H41.72z"/><path fill="#262c33" d="M36.084 40.984q-.907 0-1.465-.058V38.68q.743.039 1.172.039.342 0 .567-.059a.9.9 0 0 0 .44-.273q.214-.215.38-.645l.176-.449-3.809-10.898h3.028l2.226 7.812h.117l2.247-7.812h3.066l-4.14 11.777q-.48 1.357-1.436 2.08-.957.732-2.569.732M32.239 37h-2.89V22.86h2.89zm-7.927-10.605h2.89V37h-2.89zm1.445-1.387q-.43 0-.8-.195a1.6 1.6 0 0 1-.577-.538 1.4 1.4 0 0 1-.205-.732q0-.4.205-.742.215-.342.576-.537a1.63 1.63 0 0 1 1.582 0q.361.195.567.537a1.37 1.37 0 0 1 0 1.474 1.55 1.55 0 0 1-.567.538q-.36.195-.78.195m-13.006 9.023q0-1.64 1.103-2.402 1.104-.762 2.842-.86 1.074-.067 2.637-.136v-.86q-.02-.663-.46-1.035-.439-.37-1.24-.37-.722 0-1.181.312a1.34 1.34 0 0 0-.576.86h-2.754a3.25 3.25 0 0 1 .644-1.68q.567-.743 1.572-1.172 1.007-.43 2.373-.43 1.212 0 2.227.38 1.026.382 1.64 1.192.626.801.626 2.022V37H19.47v-1.465h-.078q-.42.772-1.201 1.22-.771.44-1.904.44-1.035 0-1.836-.351a2.87 2.87 0 0 1-1.25-1.075q-.45-.712-.45-1.738m2.773-.078q0 .595.43.928.44.322 1.152.322.645 0 1.152-.264.518-.263.801-.722.283-.46.274-1.006v-.771a32 32 0 0 0-1.133.048q-.674.039-1.035.078-.762.078-1.202.43-.44.351-.439.957M5.04 37.176q-1.231 0-2.208-.635-.976-.645-1.543-1.875-.566-1.24-.566-2.959 0-1.758.576-2.979.576-1.23 1.553-1.845a4 4 0 0 1 2.187-.625q1.2 0 1.924.556.723.558 1.084 1.358h.098v-5.313h2.89V37H8.184v-1.7h-.137a3.5 3.5 0 0 1-1.104 1.339q-.732.537-1.904.537m.898-2.305q.713 0 1.22-.39.508-.401.772-1.114.273-.722.273-1.68 0-1.445-.596-2.285-.595-.84-1.67-.84t-1.66.85-.586 2.276q0 1.445.586 2.314.586.87 1.66.87M30.542 6.563H28.55v5.175q0 .585.254.82.255.235.742.255.625 0 1.152-.06v2.286q-.517.098-1.543.098-1.63 0-2.568-.752-.937-.752-.928-2.237V6.563h-1.464V4.395h1.464v-2.54h2.891v2.54h1.992zm-12.517 8.652q-1.582 0-2.754-.684a4.6 4.6 0 0 1-1.807-1.924q-.634-1.25-.634-2.88 0-1.632.625-2.872a4.54 4.54 0 0 1 1.806-1.914q1.182-.683 2.764-.683t2.764.683a4.5 4.5 0 0 1 1.816 1.914q.635 1.24.635 2.872 0 1.63-.635 2.88a4.6 4.6 0 0 1-1.816 1.924q-1.182.684-2.764.684m.02-2.246q.722 0 1.23-.41.508-.42.762-1.153.254-.732.254-1.68 0-.946-.254-1.68-.254-.741-.762-1.161t-1.23-.42q-.733 0-1.25.42-.508.42-.772 1.162-.264.732-.264 1.68 0 .938.264 1.68.264.732.772 1.152.517.41 1.25.41M5.04 15.176q-1.231 0-2.208-.635-.976-.645-1.543-1.875-.566-1.24-.566-2.959 0-1.758.576-2.978.576-1.23 1.553-1.846a4 4 0 0 1 2.187-.625q1.2 0 1.924.556.723.558 1.084 1.358h.098V.859h2.89V15H8.184v-1.7h-.137a3.5 3.5 0 0 1-1.104 1.339q-.732.537-1.904.537m.898-2.305q.713 0 1.22-.39.508-.402.772-1.114.273-.723.273-1.68 0-1.445-.596-2.285-.595-.84-1.67-.84t-1.66.85-.586 2.276q0 1.444.586 2.314t1.66.87"/></svg>
